X: 44
T:Strangers Hornpipe,2nd part. JNu.25
M:4/4
Q:180
S:James Nuttall MS,c1830,Rossendale,East Lancs.
R:Hornpipe
O:England
A:East Lancashire
Z:vmp.Chris Partington
K:D
"secundo"zz|FGFDF2z2|dedc BAGF|A2AG F2ED|C2C2C2z2|!
FGADF2z2|dedc BAGF|A2GFG2FE|F2F2F2:|!
|:F2Acdef2cd|edcB AGFE|cdcAE2Bc|d2c2c2z2|!
FGFDF2z2|dedc BAGF|A2G2AGFE|F2[A,2F2][A,2F2]z2:|]
